images/armani.svg

<svg fill="none" height="24" viewBox="0 0 100 24" width="100" xmlns="http://www.w3.org/2000/svg"><path clip-rule="evenodd" d="m41.2628.0614904h-4.8087l.0569.8312406h1.7058v21.452969h-1.6386l-.0672-.4737s-1.1193.6513-2.3958.3553c-1.2787-.2984-1.3539-3.8443-1.3539-7.2706s-3.0426-4.0799-3.0426-4.0799 3.4537-.1184 3.4537-5.26647c0-5.149166-5.985-5.5488396-5.985-5.5488396h-7.6748v.8312406h2.0599v21.450669h-3.4559l-8.0289-22.3434h-.23572l-7.97086 22.3434h-1.88112v.7721h4.45457v-.7721h-1.68982l2.27966-6.3789h7.02799l2.5313 6.3789h-2.767v.7721h14.8987v-.8313h-2.1772v-10.8142h2.9845c1.4005 0 2.1314 1.3905 2.4957 2.0834.0596.1133.1093.208.1506.2749.1614.2582.2169 1.6413.2722 3.0191.0461 1.1496.092 2.2956.1992 2.7814.2357 1.0704.7937 2.1977 2.044 2.9538 1.3357.8096 3.4844.2448 3.867.1355v.3985h4.1608v-.772h-1.5885v-18.44116l6.8675 19.39076h.5135l6.6898-19.44997v18.50147h-1.9995v.7652h10.3234l-.0069-.7538h-1.6477l2.3446-6.3323h7.1032l2.3958 6.3209h-2.5131v.8312h10.0148v-.8449h-1.9437v-19.79272h.296l13.3091 20.75612h.3518v-22.414058h3.9831v21.462058h-1.4677v.7914h6.2423v-.7959h-1.4496v-21.457558h1.3278v-.7925293l-10.8712-.0273223v.8312406h1.6477v16.007769l-10.9553-16.8378716h-4.5149v.8312406h1.5884l-.0068 21.447231h-1.5304l-8.0198-22.220404h-.4134l-7.6747 22.225004h-2.7488v-21.451831h1.6898v-.772035h-4.4386l-6.223 17.491466zm-16.5872 10.6969096s5.7492-.1185 5.7492-5.26764c0-5.149169-5.7492-4.598044-5.7492-4.598044zm37.9082 4.4944h6.5566l-3.1599-9.22799h-.4714zm-57.36279 0h6.55769l-3.1621-9.22799h-.46915z" fill="#fff" fill-rule="evenodd"/></svg>

<svg width="100" height="24" viewBox="0 0 100 24" fill="none" xmlns="http://www.w3.org/2000/svg">
<path fill-rule="evenodd" clip-rule="evenodd" d="M41.2628 0.0614904H36.4541L36.511 0.892731H38.2168V22.3457H36.5782L36.511 21.872C36.511 21.872 35.3917 22.5233 34.1152 22.2273C32.8365 21.9289 32.7613 18.383 32.7613 14.9567C32.7613 11.5304 29.7187 10.8768 29.7187 10.8768C29.7187 10.8768 33.1724 10.7584 33.1724 5.61033C33.1724 0.461164 27.1874 0.0614904 27.1874 0.0614904H19.5126V0.892731H21.5725V22.3434H18.1166L10.0877 0H9.85198L1.88112 22.3434H0V23.1155H4.45457V22.3434H2.76475L5.04441 15.9645H12.0724L14.6037 22.3434H11.8367V23.1155H26.7354V22.2842H24.5582V11.47H27.5427C28.9432 11.47 29.6741 12.8605 30.0384 13.5534C30.098 13.6667 30.1477 13.7614 30.189 13.8283C30.3504 14.0865 30.4059 15.4696 30.4612 16.8474C30.5073 17.997 30.5532 19.143 30.6604 19.6288C30.8961 20.6992 31.4541 21.8265 32.7044 22.5826C34.0401 23.3922 36.1888 22.8274 36.5714 22.7181V23.1166H40.7322V22.3446H39.1437V3.90344L46.0112 23.2942H46.5247L53.2145 3.84423V22.3457H51.215V23.1109H61.5384L61.5315 22.3571H59.8838L62.2284 16.0248H69.3316L71.7274 22.3457H69.2143V23.1769H79.2291V22.332H77.2854V2.53928H77.5814L90.8905 23.2954H91.2423V0.881342H95.2254V22.3434H93.7577V23.1348H100V22.3389H98.5504V0.881342H99.8782V0.0888127L89.007 0.0614904V0.892731H90.6547V16.9005L79.6994 0.0626284H75.1845V0.893869H76.7729L76.7661 22.3411H75.2357L67.2159 0.120696H66.8025L59.1278 22.3457H56.379V0.893869H58.0688V0.121834H53.6302L47.4072 17.6133L41.2628 0.0614904ZM24.6756 10.7584C24.6756 10.7584 30.4248 10.6399 30.4248 5.49076C30.4248 0.341591 24.6756 0.892716 24.6756 0.892716V10.7584ZM62.5838 15.2528H69.1404L65.9805 6.02481H65.5091L62.5838 15.2528ZM5.22101 15.2528H11.7787L8.6166 6.02481H8.14745L5.22101 15.2528Z" fill="white"/>
</svg>
